X:1
T:Fijiyama -- Hornpipe
R:hornpipe
B:Cole's 1000 Fiddle Tunes
Z:Bob Puckette <bpuckette:msn.com> 2003-3-8
M:C|
L:1/8
K:Bb
(udc)|B>FD>F B>df>d|e>cA>c B>df>d|b>ag>f e>dc>B|(3.c.d.c (3.B.A.G (3.F.G.F (3.E.D.C|
B,>BA>B d>BA>B|C>c=B>c e>cA>c|B>ba>b g>ec>A|B2b2B2:|
|:(udc)|B>df>d b>fd>B|f>ba>b f>dB>F|D>B,F>D B>Fd>B|(3.c.d.c (3.B.A.G (3.F.G.F (3.E.D.C|
B,>BA>B d>BA>B|C>c=B>c e>cA>c|B>ba>b g>ec>A|B2b2B2:|
